X:1
T:English Suite II Prelude: as inspired by Pogorelich
T:BWV 807
T:J. S. Bach
%%score { ( 1 4 5 ) | ( 2 3 ) }
L:1/8
Q:1/4=136
M:3/4
K:C
V:1 treble nm="\n"
V:4 treble 
V:5 treble 
V:2 bass 
V:3 bass 
V:1
 z e Aa g/e/f/d/ | e/d/c/B/ c/B/c/f/ B/e/A/d/ | ^G/d/B/G/ d/B/G/B/ E/d/c/B/ | %3
 c/B/A/^G/ A/B/c/F/ B/E/A/B/ | ^GE GB GE | A/g/e/^c/ g/e/c/e/ A/G/^F/E/ | ^Fd ^fa fd | %7
 g/f/d/B/ f/d/B/d/ G/f/e/d/ | e/d/c/B/ A/c/d/^f/ g/B/c/A/ | B/d/e/f/ g/A/^A/G/ g/=A/^A/G/ | %10
 A/c/d/e/ f/G/A/F/ f/G/A/F/ | G/E/G/B/ e/F/G/E/ e/F/G/E/ | F/D/F/A/ d/E/F/D/ d/E/F/D/ | %13
 E/D/C/B,/ C/^G,/A,/E/ D/B,/C/A,/ | B,/D/B,/^G,/ D/B,/G,/B,/ E,/D/C/B,/ | %15
 C/A,/^C/E/ G/E/C/E/ A,/G/F/E/ | F/A,/D/F/ A/^F/^D/F/ B,/A/^G/F/ | ^G/E/G/B/ d/B/G/B/ E/d/c/B/ | %18
 ce Aa g/e/f/d/ | b/a/^g/^f/ g/f/g/b/ e/g/a/c/ | d/f/c/f/ B/f/c/f/ B/f/A/f/ | %21
 ^G/B/e/E/ A/c/e/E/ G/B/d/E/ | c4 F/E/F/c/ | B4 E/D/E/_B/ | A2 F/E/F/A/ ^G/B/A/c/ | %25
 B/c/d/B/ ^G/E/F/D/ E/C/D/B,/ | C/E/A/^G/ A/D/E/C/ D/B,/C/A,/ | ^G,/E/B/A/ B/E/F/D/ E/C/D/B,/ | %28
 C/D/E/B,/ CD CB, |[I:staff +1] A,/B,/C/^G,/ A,/E,/F,/B,/ E,/A,/D,/G,/ | %30
 C,/E,/A,- A,^G, A,/C/B,/D/ | %31
 ^G,/B,/[I:staff -1]D/F/ D/[I:staff +1]B,/G,/B,/ E,/[I:staff -1]D/C/B,/ | C/E/A- A^G A/c/B/d/ | %33
 ^G/B/d/^e/ d/B/G/B/ E/d/c/B/ | c/e/a- a^g a/c'/b/a/ | ^g/^f/g/b/ a/g/a/c'/ g/f/g/b/ | %36
 ^f/e/f/a/ =f/e/f/b/ e/d/e/a/ | d/c/d/^g/ e/d/e/a/ d/^B/d/g/ | c/B/c/^f/ d/c/d/^g/ c/B/c/f/ | %39
 B/A/B/e/ d/B/c/A/ B/^G/A/^F/ | ^G/^F/G/B/ E/^D/E/G/ =D/C/D/=F/ | %41
[I:staff +1] B,/A,/B,/D/ ^G,/^F,/G,/B,/ E,[I:staff -1] z | %42
 z/[I:staff +1] D,/C,/B,,/ F,/D,/C,/B,,/ ^G,/D,/C,/B,,/ | B,/F,/E,/D,/ ^G,/F,/E,/D,/ B,/F,/E,/D,/ | %44
 D/^G,/^F,/E,/ B,/G,/F,/E,/ D/B,/A,/G,/ | F/E/D/C/ B,/A,/^G,/^F,/[I:staff -1] z2 | %46
 z e Aa g/e/f/d/ | e/B/c/^G/ A/c/f/d/ e/c/d/B/ | c/B/c/^G/ A/c/e/c/ d/B/c/A/ | %49
 B/A/B/^G/ A/G/A/f/ e/c/d/B/ | c/B/A/^G/ A/B/c/f/ e/c/d/B/ | c/B/A/^G/ A/B/c/d/ c/A/B/G/ | %52
 A/B/c/A/ ^G/A/c/A/ B/G/A/^F/ | ^G/F/E/D/ C/B,/C/A/ B,/A/B,/G/ | AE E/F/E EE |{E} FD D/E/D DD | %56
{D} EG G/A/G GG |{G} A^F F/G/F FF |{^F} GB Ee d/B/c/A/ | B/A/G/^F/ G/F/G/c/ F/B/E/A/ | %60
 ^D/A/^F/D/ A/F/D/F/ B,/A/G/F/ | GB, B,/C/B, B,B, |{B,} CA, A,/B,/A, A,A, |{A,} B,D D/E/D DD | %64
{D} E^C C/D/C CC |{^C} D/B,/D/^F/ B/D/F/B/ dd | d/E/^G/B/ d/B/G/B/ E/d/c/B/ | %67
 c/A,/C/E/ A/C/E/A/ cc | c/D/^F/A/ c/A/F/A/ E/c/B/A/ | B/^F/G/A/ D/F/G/B/ D/F/G/B/ | %70
 c/^F/G/c/ D/F/G/c/ D/F/G/c/ | d/^F/G/d/ D/F/G/d/ D/F/G/d/ | E/D/E/d/ E/D/E/d/ E/D/E/d/ | %73
 E/D/E/c/ E/D/E/c/ E/D/E/c/ | ^F/E/F/c/ F/E/F/c/ F/E/F/c/ | G/^F/G/B/ G/F/G/B/ G/F/G/B/ | %76
 G/^F/G/e/ G/F/G/e/ G/F/G/e/ | ^F/D/F/A/ d/E/=F/D/ d/E/F/D/ | E/C/E/G/ c/D/E/C/ c/D/E/C/ | %79
 Dd d/e/d dd | dc c/d/c cc | B/A/G/^F/ G/F/G/c/ F/B/E/A/ | ^D/c/B/A/ ^F/c/B/A/ A/c/B/A/ | %83
 B,/A/G/^F/ ^D/A/G/F/ F/A/G/F/ | A,/^F/E/^D/ C/F/E/D/ D/F/E/D/ | A/^F/E/^D/ c/F/E/D/ B/A/G/F/ | %86
 GB Ee d/B/c/A/ | B/^F/G/^D/ E/G/^B/A/ =B/G/A/F/ | G/^F/G/^D/ E/G/B/G/ A/F/G/E/ | %89
 ^F/E/F/^D/ E/D/E/c/ B/G/A/F/ | G/^F/E/^D/ E/F/G/c/ B/G/A/F/ | G/^F/E/^D/ E/F/G/A/ G/E/F/D/ | %92
 E/^F/G/E/ ^D/E/G/E/ F/D/E/^C/ | ^D/c/B/A/ G/A/B/c/ G/4^F/4E/4F/4G/4F/4E/ | EG G/A/G GG | %95
 _BG G/A/G G/B/A/G/ | FF F/G/F FF | dF F/G/F F/A/G/F/ | E/B,/C/E/ G,/B,/C/E/ G,/B,/C/E/ | %99
 F/B,/C/F/ G,/B,/C/F/ G,/B,/C/F/ | G/B,/C/G/ G,/B,/C/G/ G,/B,/C/G/ | %101
 A,/G,/A,/G/ A,/G,/A,/G/ A,/G,/A,/G/ | A,/G,/A,/F/ A,/G,/A,/F/ A,/G,/A,/F/ | %103
 B,/A,/B,/F/ B,/A,/B,/F/ B,/A,/B,/F/ | C/B,/C/E/ C/B,/C/E/ C/B,/C/E/ | %105
 C/B,/C/_E/ C/B,/C/E/ C/B,/C/A/ | B,/D/F/_A/ F/D/B,/G,/ z2 | c/4B/4c3/2 _E2 z B | %108
 ^c/4B/4cd/ e/4d/4e/4d/4e/4d/4e/4d/4 e/4d/4e/4d/4 =c | ce Aa g/e/f/d/ | %110
 e/d/c/B/ c/B/c/f/ B/e/A/d/ | ^G/d/B/G/ d/B/G/B/ E/d/c/B/ | c/B/A/^G/ A/B/c/F/ B/E/A/B/ | %113
 ^GE GB GE | A/g/e/^c/ g/e/c/e/ A/G/^F/E/ | ^Fd ^fa fd | g/f/d/B/ f/d/B/d/ G/f/e/d/ | %117
 e/d/c/B/ A/c/d/^f/ g/B/c/A/ | B/d/e/f/ g/A/_B/G/ g/A/B/G/ | A/c/d/e/ f/G/A/F/ f/G/A/F/ | %120
 G/E/G/B/ e/F/G/E/ e/F/G/E/ | F/D/F/A/ d/E/F/D/ d/E/F/D/ | E/D/C/B,/ C/^G,/A,/E/ D/B,/C/A,/ | %123
 B,/D/B,/^G,/ D/B,/G,/B,/ E,/D/C/B,/ | C/A,/^C/E/ G/E/C/E/ A,/G/F/E/ | %125
 F/A,/D/F/ A/^F/^D/F/ B,/A/^G/F/ | ^G/E/G/B/ d/B/G/B/ E/d/c/B/ | ce Aa g/e/f/d/ | %128
 b/a/^g/^f/ g/f/g/b/ e/g/a/^B/ | d/f/c/f/ B/f/c/f/ B/f/A/f/ | ^G/B/e/E/ A/c/f/E/ G/B/d/E/ | %131
 c4 F/E/F/c/ | B4 E/D/E/_B/ | A2 F/E/F/A/ ^G/B/A/c/ | B/c/d/B/ ^G/E/F/D/ E/C/D/B,/ | %135
 C/E/A/^G/ A/D/E/C/ D/B,/C/A,/ | ^G,/E/B/A/ B/E/F/D/ E/C/D/B,/ | C/D/E/B,/ CD CB, | %138
[I:staff +1] A,/B,/C/^G,/ A,/E,/F,/B,/ E,/A,/D,/G,/ | C,/E,/A,- A,^G, A,/C/B,/D/ | %140
 ^G,/B,/[I:staff -1]D/F/ D/[I:staff +1]B,/G,/B,/ E,/[I:staff -1]D/C/B,/ | C/E/A- A^G A/c/B/d/ | %142
 ^G/B/d/f/ d/B/G/B/ E/d/c/B/ | c/e/a- a^g a/c'/b/a/ | ^g/^f/g/b/ a/g/a/c'/ g/f/g/b/ | %145
 ^f/e/f/a/ =f/e/f/b/ e/d/e/a/ | d/c/d/^g/ e/d/e/a/ d/c/d/g/ | c/B/c/^f/ d/c/d/^g/ c/B/c/f/ | %148
 B/A/B/e/ d/B/c/A/ B/^G/A/^F/ | ^G/^F/G/B/ E/^D/E/G/ =D/C/D/=F/ | %150
[I:staff +1] B,/A,/B,/D/ ^G,/^F,/G,/B,/ E,[I:staff -1] z | %151
 z/[I:staff +1] D,/C,/B,,/ F,/D,/C,/B,,/ ^G,/D,/C,/B,,/ | B,/F,/E,/D,/ ^G,/F,/E,/D,/ B,/F,/E,/D,/ | %153
 D/^G,/^F,/E,/ B,/G,/F,/E,/ D/B,/A,/G,/ | F/E/D/C/ B,/A,/^G,/^F,/[I:staff -1] z2 | %155
 z e Aa g/e/f/d/ | e/B/c/^G/ A/c/f/d/ e/c/d/B/ | c/B/c/^G/ A/c/e/c/ d/B/c/A/ | %158
 B/A/B/^G/ A/G/A/f/ e/c/d/B/ | c/B/A/^G/ A/B/c/f/ e/c/d/B/ | c/B/A/^G/ A/B/c/d/ c/A/B/G/ | %161
 A/B/c/A/ ^G/A/c/A/ B/G/A/^F/ | ^G/F/E/D/ C/B,/C/A/ B,/A/B,/G/ | A6 |] %164
V:2
 z6 | z E A,A G/E/F/D/ | EE, ^G,B, G,E, | A,E, A,,A, G,/E,/F,/D,/ | %4
 E,/D,/B,,/^G,,/ D,/B,,/G,,/B,,/ E,,/D,/C,/B,,/ | ^C,A,, C,E, C,A,, | %6
 D,/C/A,/^F,/ C/A,/F,/A,/ D,/C/B,/A,/ | B,G, B,D B,G, | CG, C,C B,/G,/A,/^F,/ | G,F, E,D, E,C, | %10
 F,E, D,C, D,B,, | E,D, ^C,B,, C,A,, | D,C, B,,A,, B,,G,, | C,G,, C,,C, B,,/^G,,/A,,/^F,,/ | %14
 ^G,,E,, G,,B,, G,,E,, | A,,A,, ^C,E, C,A,, | D,F,/E,/ ^D,^F, D,B,, | E,,E, ^G,B, G,E, | %18
 z/ D/C/B,/ C/B,/C/E/ ^C/E/D/^E/ | ^G,B, E,E D/B,/C/A,/ | B,A, ^G,A, B,^B, | DD, C,C B,E, | %22
 A,,A,- A,/G,/^E,/=E,/ D,/^B,,/D,/D,,/ | G,,G,- G,/^E,/=E,/D,/ C,/_B,,/C,/C,,/ | %24
 F,,A,, D,,D,/C,/ B,,/^G,,/A,,/^F,,/ | ^G,,2 z B,, G,,E,, | A,,2 z C, B,,A,, | E,2 z E, ^F,^G, | %28
 A,>^G, A,/E,/F,/D,/ E,/C,/D,/B,,/ | C,/D,/E,/B,,/ C,D, C,B,, | %30
 A,,>^G,, A,,/E,,/B,,/E,,/ C,/E,,/D,/E,,/ | E,E,, z4 | A,>G, A,/E,/B,/E,/ C/E,/D/E,/ | EE, z4 | %34
[I:staff -1] A>^G A/E/B/E/ c/E/d/E/ | eE eE dE | cE dE cE | BE cE BE | AE BE AE | %39
 ^GE[I:staff +1] z E/C/ D/B,/C/A,/ | B,/A,/B,/D/ ^G,/^F,/G,/B,/ =F,/E,/F,/A,/ | %41
 D,/C,/D,/F,/ B,,/A,,/B,,/D,/ ^G,,/^F,,/G,,/B,,/ | E,,2 z4 | E,,2 z4 | E,,2 z4 | z4 E,/D,/C,/B,,/ | %46
 z2 z C DB, | CC, z D CB, | A,2 z C B,A, | ^G,E, z A, A,G, | A,E, A,,A, G,/E,/F,/D,/ | %51
 E,/D,/C,/E,/ A,,/C,/F,/D,/ E,/C,/D,/B,,/ | C,/B,,/A,,/C,/ E,,/A,,/E,/C,/ D,/B,,/C,/A,,/ | %53
 B,,/A,,/B,,/^G,,/ A,,D, E,E,, | A,,2 z/ A,,/C,/E,/ A,/G,/^E,/=E,/ | %55
 D,2 z/ G,,/B,,/D,/ G,/F,/E,/D,/ | C,2 z/ C,/E,/G,/ C/B,/A,/G,/ | %57
 ^F,2 z/ B,,/^D,/F,/ B,/A,/G,/F,/ | E,/^D,/E,/^F,/ G,/F,/G,/A,/ B,/G,/A,/^E,/ | %59
 G,B, E,E D/B,/C/A,/ | B,B,, ^D,^F, D,B,, | E,E,, z/ E,,/G,,/B,,/ E,/D,/C,/B,,/ | %62
 A,,2 z/ D,,/^F,,/A,,/ D,/C,/B,,/A,,/ | G,,2 z/ G,,/B,,/D,/ G,/^F,/E,/D,/ | %64
 ^C,2 z/ ^F,,/^A,,/C,/ ^F,/E,/D,/C,/ | B,,2 z/ B,,/D,/^F,/ B,/A,/^G,/F,/ | E,E,, ^G,,B,, G,,E,, | %67
 A,,2 z/ A,,/C,/E,/ A,/G,/^F,/E,/ | D,D,, ^F,,A,, F,,D,, | G,,G, G,/A,/G, G,G, | %70
 A,,G, G,/A,/G, G,G, | B,,G, G,/A,/G, G,G, | ^B,,G, G,/A,/G, G,G, | ^B,,A, A,/B,/A, A,A, | %74
 D,A, A,/B,/A, A,A, | D,B, B,/C/B, B,B, | D,^C C/D/C CC | D,D/=C/ B,A, B,G, | %78
 ^B,,C/B,/ A,G, A,^F, | B,/B,,/D,/^F,/ B,/F,/^G,/E,/ B,/F,/G,/E,/ | %80
 A,/A,,/C,/E,/ A,/E,/^F,/D,/ A,/E,/F,/D,/ | G,B, E,E D/B,/C/A,/ | B,2 z4 | B,,2 z4 | B,,2 z4 | %85
 z B,, ^D,^F, D,B,, | E,,2 z E, ^F,D, | G,G,, z A, G,^F, | E,2 z G, ^F,E, | ^D,B,, C,A,, B,,B,, | %90
 E,,B, E,E D/B,/C/A,/ | B,/A,/G,/B,/ E,/G,/C/A,/ B,/G,/A,/^F,/ | %92
 G,/^F,/E,/G,/ B,,/E,/B,/G,/ A,/F,/G,/E,/ | ^F,/E,/F,/^D,/ E,A, B,B,, | %94
 E,2 z/ E,,/G,,/B,,/ E,/D,/^C,/B,,/ | A,,2 z/ A,,/^C,/E,/ A,/G,/F,/E,/ | %96
 D,2 z/ D,,/F,,/A,,/ D,/C,/B,,/A,,/ | G,,2 z/ G,,/B,,/D,/ G,/^E,/=E,/D,/ | C,C, C,/D,/C, C,C, | %99
 D,,C, C,/D,/C, C,C, | E,,C, C,/D,/C, C,C, | F,,C, C,/D,/C, C,C, | F,,D, D,/E,/D, D,D, | %103
 G,,D, D,/E,/D, D,D, | G,,E, E,/F,/E, E,E, | G,,^F, ^E,/G,/F, F,F, | G,,2 z2 F,/D,/B,,/G,,/ | %107
 z2 ^F,,2 z =F,, | E,,F,, G,,F,, G,,2 | C,, z z4 | %110
 z[I:staff -1] E[I:staff +1]A,[I:staff -1]A G/E/F/D/ | E[I:staff +1]E, ^G,B, G,E, | %112
 A,E, A,,A, G,/E,/F,/D,/ | E,/D,/B,,/^G,,/ D,/B,,/G,,/B,,/ E,,/D,/C,/B,,/ | ^C,A,, C,E, C,A,, | %115
 D,/C/A,/^F,/ C/A,/F,/A,/ D,/C/B,/A,/ | B,G, B,D B,G, | CG, C,C B,/G,/A,/^F,/ | G,F, E,D, E,C, | %119
 F,E, D,C, D,B,, | E,D, ^C,B,, C,A,, | D,C, B,,A,, B,,G,, | C,G,, C,,C, B,,/^G,,/A,,/^F,,/ | %123
 ^G,,E,, G,,B,, G,,E,, | A,,A,, ^C,E, C,A,, | D,F,/E,/ ^D,^F, D,B,, | E,,E, ^G,B, G,E, | %127
 z/ D/C/B,/ C/B,/C/E/ ^C/E/D/^E/ | ^G,B, E,E D/B,/C/A,/ | B,A, ^G,A, B,C | DD, C,C B,E, | %131
 A,,A,- A,/G,/F,/E,/ D,/C,/D,/D,,/ | G,,G,- G,/F,/E,/D,/ C,/_B,,/C,/C,,/ | %133
 F,,A,, D,,D,/C,/ B,,/^G,,/A,,/^F,,/ | ^G,,2 z B,, G,,E,, | A,,2 z C, B,,A,, | E,2 z E, ^F,^G, | %137
 A,>^G, A,/E,/F,/D,/ E,/C,/D,/B,,/ | C,/D,/E,/B,,/ C,D, C,B,, | %139
 A,,>^G,, A,,/E,,/B,,/E,,/ C,/E,,/D,/E,,/ | E,E,, z4 | A,>^G, A,/E,/B,/E,/ C/E,/D/E,/ | EE, z4 | %143
[I:staff -1] A>^G A/E/B/E/ c/E/d/E/ | eE eE dE | cE dE cE | BE cE BE | AE BE AE | %148
 ^GE[I:staff +1] z E/C/ D/B,/C/A,/ | B,/A,/B,/D/ ^G,/^F,/G,/B,/ =F,/E,/F,/A,/ | %150
 D,/C,/D,/F,/ B,,/A,,/B,,/D,/ ^G,,/^F,,/G,,/B,,/ | E,,2 z4 | E,,2 z4 | E,,2 z4 | z4 E,/D,/C,/B,,/ | %155
 A,,2 z A, B,G, | CC, z D CB, | A,2 z C B,A, | ^G,E, ^E,D, =E,E, | A,E, A,,A, G,/E,/F,/D,/ | %160
 E,/D,/C,/E,/ A,,/C,/F,/D,/ E,/C,/D,/B,,/ | C,/B,,/A,,/C,/ E,,/A,,/E,/C,/ D,/B,,/C,/A,,/ | %162
 B,,/A,,/B,,/^G,,/ A,,D, E,E,, | A,,6 |] %164
V:3
 x6 | x6 | x6 | x6 | x6 | x6 | x6 | x6 | x6 | x6 | x6 | x6 | x6 | x6 | x6 | x6 | x6 | x6 | z6 | %19
 x6 | x6 | x6 | x6 | x6 | x6 | x6 | x6 | x6 | x6 | x6 | z z/ B,,/ C,D, E,F, | x6 | x6 | x6 | x6 | %35
 x6 | x6 | x6 | x6 | x6 | x6 | x6 | x6 | x6 | x6 | x6 | A,,2 z A, B,G, | x6 | x6 | z2 F,D, E,E, | %50
 x6 | x6 | x6 | x6 | x6 | x6 | x6 | x6 | x6 | x6 | x6 | x6 | x6 | x6 | x6 | x6 | x6 | x6 | x6 | %69
 x6 | x6 | x6 | x6 | x6 | x6 | x6 | x6 | x6 | x6 | x6 | x6 | x6 | x6 | x6 | x6 | x6 | x6 | x6 | %88
 x6 | z2 z E, E,^D, | E, z z4 | x6 | x6 | x6 | x6 | x6 | x6 | x6 | x6 | x6 | x6 | x6 | x6 | x6 | %104
 x6 | x6 | x6 | x6 | x6 | x6 | x6 | x6 | x6 | x6 | x6 | x6 | x6 | x6 | x6 | x6 | x6 | x6 | x6 | %123
 x6 | x6 | x6 | x6 | A,6 | x6 | x6 | x6 | x6 | x6 | x6 | x6 | x6 | x6 | x6 | x6 | %139
 z z/ B,,/ C,D, E,F, | x6 | x6 | x6 | x6 | x6 | x6 | x6 | x6 | x6 | x6 | x6 | x6 | x6 | x6 | x6 | %155
 x6 | x6 | x6 | z2 z A, A,^G, | x6 | x6 | x6 | z4 E,2 | x6 |] %164
V:4
 x6 | x6 | x6 | x6 | x6 | x6 | x6 | x6 | x6 | x6 | x6 | x6 | x6 | x6 | x6 | x6 | x6 | x6 | x6 | %19
 x6 | x6 | x6 | x/ c/A/G/ F/E/D/E/ z2 | z/ A/G/F/ E/D/C/D/ z2 | z/ G/F/E/ z4 | x6 | x6 | x6 | x6 | %29
 x6 | x6 | x6 | x6 | x6 | z z/ B/ cd ef | x6 | x6 | x6 | x6 | x6 | x6 | x6 | x6 | x6 | x6 | x6 | %46
 x6 |[I:staff +1] C2[I:staff -1] z A A^G | A z z A ^GE | D2 CB, CB, | %50
[I:staff +1] A,[I:staff -1] z z4 | x6 | x6 | x6 | z C CC CC | CB, B,B, B,B, | CE EE EE | %57
 E^D DD DD | E z z4 | x6 | x6 | z[I:staff +1] G, G,G, G,G, | G,^F, F,F, F,F, | G,B, B,B, B,B, | %64
 B,^A, A,A, A,A, | B,[I:staff -1] z z2 z B | B/ z/ z z4 | z4 z A | A/ z/ z z4 | x6 | x6 | x6 | x6 | %73
 x6 | x6 | x6 | x6 | x6 | x6 | z B BB BB | BA AA AA | B/ z/ z z4 | x6 | x6 | x6 | x6 | %86
 z2 z[I:staff +1] G, A,F, | G,2[I:staff -1] z[I:staff +1] E E^D | %88
 E[I:staff -1] z z[I:staff +1] E ^DB, | A,2 G,^F, G,F, | x6 | x6 | x6 |[I:staff -1] z4 ^D2 | %94
 EE EE EE | GE EE E z | z D DD DD | FD DD D z | x6 | x6 | x6 | x6 | x6 | x6 | x6 | x6 | x6 | %107
 z2 C2 z G | G2 B4 | x6 | x6 | x6 | x6 | x6 | x6 | x6 | x6 | x6 | x6 | x6 | x6 | x6 | x6 | x6 | %124
 x6 | x6 | x6 | x6 | x6 | x6 | x6 | z/ B/A/G/ F/E/D/E/ z2 | z/ A/G/F/ E/D/C/D/ z2 | z/ G/F/E/ z4 | %134
 x6 | x6 | x6 | x6 | x6 | x6 | x6 | z z/ B,/ CD EF |[I:staff +1] E2[I:staff -1] z4 | %143
 z z/ B/ cd ef | x6 | x6 | x6 | x6 | x6 | x6 | x6 | x6 | x6 | x6 | x6 | z2 z[I:staff +1] C DB, | %156
 C2[I:staff -1] z A A^G | A z z A ^GE | D2 CB, CB, |[I:staff +1] A,[I:staff -1] z z4 | x6 | x6 | %162
 x6 | x6 |] %164
V:5
 x6 | x6 | x6 | x6 | x6 | x6 | x6 | x6 | x6 | x6 | x6 | x6 | x6 | x6 | x6 | x6 | x6 | x6 | x6 | %19
 x6 | x6 | x6 | x6 | x6 | x6 | x6 | x6 | x6 | x6 | x6 | x6 | x6 | x6 | x6 | x6 | x6 | x6 | x6 | %38
 x6 | x6 | x6 | x6 | x6 | x6 | x6 | x6 | x6 | x6 | x6 | x6 | x6 | x6 | x6 | x6 | x6 | x6 | x6 | %57
 x6 | x6 | x6 | x6 | x6 | x6 | x6 | x6 | z4 z ^F | ^G/ z/ z z4 | z4 z E | ^F/ z/ z z4 | x6 | x6 | %71
 x6 | x6 | x6 | x6 | x6 | x6 | x6 | x6 | x6 | x6 | x6 | x6 | x6 | x6 | x6 | x6 | x6 | x6 | x6 | %90
 x6 | x6 | x6 | x6 | x6 | ^C z z4 | x6 | B z z4 | x6 | x6 | x6 | x6 | x6 | x6 | x6 | x6 | x6 | %107
 z2 A,2 z D | x6 | x6 | x6 | x6 | x6 | x6 | x6 | x6 | x6 | x6 | x6 | x6 | x6 | x6 | x6 | x6 | x6 | %125
 x6 | x6 | x6 | x6 | x6 | x6 | x6 | x6 | x6 | x6 | x6 | x6 | x6 | x6 | x6 | x6 | x6 | x6 | x6 | %144
 x6 | x6 | x6 | x6 | x6 | x6 | x6 | x6 | x6 | x6 | x6 | x6 | x6 | x6 | x6 | x6 | x6 | x6 | x6 | %163
 x6 |] %164

